X: 158
T: The fairhaired boy
C: anon.
O: Ireland
B: Francis O'Neill: "The Dance Music of Ireland" (1907) no. 158
R: Double jig
Z: Transcribed by Frank Nordberg - http://www.musicaviva.com
F: http://www.musicaviva.com/abc/tunes/ireland/oneill-1001/oneill-1001-015
8.abc
M: 6/8
L: 1/8
K: Am
EAA AGA|Bdd dBd|ege dBA|BAB GED|EAA A=GA|Bdd dBd|ege dBG|BAA A3:|eaa ea
a|
egg ged|ege dBA|BAB GED|[1 eaa eaa|egg ged|ege dBG|BAA A2 z:|[2 EAA A=G
A|Bdd dBd|ege dBG|BAA A2 z|]
W:
W:
W: From Musica Viva - http://www.musicaviva.com
W: the Internet center for free sheet music downloads.


